X:18985
T:Xiraldilla (CT 125)
R:Xiraldilla
C:Tradicional
S:Msica Tradicional Asturiana, (C) Tello & Tito. Asturies, 2001.
S:http://pagina.de/MusTradAst <telloytito@asturies.org>
N:Xiraldilla, transcrita en Uviu.
O:Uviu
A:Asturies
Z:Cancioneru de Torner 125
M:2/4
L:1/8
Q:1/4=168
W:Era de peral el santu,
W:que lu fizo un carpinteru;
W:por eso pesaba tantu
W:el demoniu delmaderu.
W:Era de peral,
W:por eso pesaba tantu l'animal.
K:G
|dd dd|g3f|e2 c2|eg fe|d3c|B2 G2|
dd dd|g3f|e2 c2|eg fe|d3c|B2 G2|
Bd cB|A4|eg fe|d3c|BcBA|G4||
